X:1097
T:Love Is Teasing
C:Joe Buchanan's Scottish Tome - Page 626.3
I:626 3
Z:Carl Allison
R:Folk
L:1/4
M:3/4
K:G
d | "G"g f g | "G"G3 | "G"B2 d | "D"f2 e | "D"d2 c | "D"A3- | "D"A d | "D"d ^c d |
"D7"f3 | "D7"e2 d | "D7"d e d | "G"B3- | "E7"B3 | "A7"B2 d | "D7"g f g | "G"G3 |
"G"B2 d | "D"f2 e | "D"d2 c | "D"A3- | "D"A2 d | "D"d ^c d | "D7"f3 | "D6"e2 d |
"D7"c F A | "G"G3- | "G"G- | "G"G2 |]

